Yaru++/apps/16/bluetooth.svg

<svg height="16" width="16" xmlns="http://www.w3.org/2000/svg">
  <path d="m5.16211 0c-.83879.01-1.45125-.0191-1.95313.25781-.25093.13845-.45077.37165-.56054.66406-.10977.29242-.14844.63974-.14844 1.07813v12c0 .43839.0387.78571.14844 1.07812.10977.29242.30961.52757.56054.66602.50188.2769 1.11434.24616 1.95313.25586h.002 5.67188.002c.83879-.01 1.45125.021 1.95312-.25586.25094-.13845.45078-.3736.56055-.66602.10967-.29241.14834-.63973.14834-1.07812v-12c0-.43839-.0387-.78571-.14844-1.07813-.10976-.29241-.30961-.52561-.56054-.66406-.50188-.2769-1.11434-.24811-1.95313-.25781h-.002-5.67187zm2.33789 1.30273 4.24023 4.23829-2.93945 2.46875 2.93945 2.46875-4.24023 4.23828v-5.61328l-2.42773 2.03906-.64454-.76563 2.81836-2.36718-2.81836-2.36719.64454-.76563 2.42773 2.03907zm1 2.41407v3.24023l1.75977-1.48047zm0 5.3457v3.24023l1.75977-1.75976z" fill="#808080"/>
</svg>

<svg xmlns="http://www.w3.org/2000/svg" width="16" height="16" version="1.1">
 <defs>
  <style id="current-color-scheme" type="text/css">
   .ColorScheme-Text { color: #808080; } .ColorScheme-Highlight { color: #5294e2; }
  </style>
 </defs>
 <path fill="currentColor" class="ColorScheme-Text" d="M 5.16211,0 C 4.32332,0.01 3.71086,-0.0191 3.20898,0.25781 2.95805,0.39626 2.75821,0.62946 2.64844,0.92187 2.53867,1.21429 2.5,1.56161 2.5,2 v 12 c 0,0.43839 0.0387,0.78571 0.14844,1.07812 0.10977,0.29242 0.30961,0.52757 0.56054,0.66602 C 3.71086,16.02104 4.32332,15.9903 5.16211,16 h 0.002 5.67188 0.002 c 0.83879,-0.01 1.45125,0.021 1.95312,-0.25586 0.25094,-0.13845 0.45078,-0.3736 0.56055,-0.66602 C 13.46133,14.78571 13.5,14.43839 13.5,14 V 2 C 13.5,1.56161 13.4613,1.21429 13.35156,0.92187 13.2418,0.62946 13.04195,0.39626 12.79102,0.25781 12.28914,-0.01909 11.67668,0.0097 10.83789,0 h -0.002 -5.67187 z M 7.5,1.30273 11.74023,5.54102 8.80078,8.00977 11.74023,10.47852 7.5,14.7168 V 9.10352 L 5.07227,11.14258 4.42773,10.37695 7.24609,8.00977 4.42773,5.64258 5.07227,4.87695 7.5,6.91602 Z m 1,2.41407 v 3.24023 l 1.75977,-1.48047 z m 0,5.3457 v 3.24023 l 1.75977,-1.75976 z"/>
</svg>
